!!!!SEGMENT: 041-1-BH-004.krn
!!!COM: Chopin, Fryderyk
!!!OTL: Mazourka No. 4
!!!OPS: Op. 41
!!!PTL: Quatre Mazourkas pour le Piano
!!!PPR: Breitkopf & Härtel
!!!PPP: Leipzig
!!!NIFC-rismID: 300605020
!!!NIFC-shelfmark: PL-Wbfc 434/n
!!!AFR: mazurka
!!!OMD: Allegretto.
**kern	**kern	**dynam
*part1	*part1	*part1
*staff2	*staff1	*
*clefF4	*clefG2	*
*k[b-e-a-d-]	*k[b-e-a-d-]	*
*A-:	*A-:	*
*M3/4	*M3/4	*
*	*	*
4r	4e-	.
=1	=1	=1
*ped	*	*
4AAA-	(8a-L	.
.	8cc	.
4e- 4c 4E-	8ee-	.
.	8een	.
4e- 4d- 4E-	8ff	.
*Xped	*	*
.	8gJ)	.
=2	=2	=2
*ped	*	*
4AA-	(>8a-L	.
.	8cc	.
.	8qff/	.
4g-X 4c 4A-	8ee-	.
.	8ddnJ	.
*Xped	*	*
4g- 4c 4A-	4ee-^<)	.
=3	=3	=3
*ped	*	*
4D-	(>8dd-XL	.
.	8ff	.
4f 4d- 4A-	8gg	.
.	8bb-	.
4f 4d- 4A-	8aa-	.
*Xped	*	*
.	8ffJ	.
=4	=4	=4
*ped	*	*
4BB-	(>8dd-L)	.
.	8een	.
.	8qgg/	.
4f 4d- 4A-	8ff	.
.	8eeJ	.
*Xped	*	*
4f 4d- 4A-	4ff^<)	.
=5	=5	=5
*ped	*	*
4E-	(<8gL/	.
.	8a-	.
4e- 4d- 4G	8b-	.
.	8cc	.
4e- 4d- 4G	8dd-	.
*Xped	*	*
.	8bnJ	.
=6	=6	=6
*ped	*	*
4AA-	8cc)L	.
.	16r	.
.	(<16dnk	.
.	8qf/	.
4c 4A- 4E-	8e-	.
.	8dJ	.
*Xped	*	*
4c 4A- 4E-	4e-^)	.
!!LO:LB:g=original
=7	=7	=7
*ped	*	*
4EE-	(>8b-L 8g	.
.	8cc 8a-	.
4e- 4d- 4G 4E-	8dd- 8b-	.
.	8ee- 8cc	.
4e- 4d- 4G 4E-	8ff 8dd-	.
*Xped	*	*
.	8ddnJ 8bn	.
=8	=8	=8
*ped	*	*
4AA-	16ee)-Lk/ 8cc	.
.	16r	.
.	(<8dn	.
.	8qf/	.
4c 4A- 4E-	8e-	.
.	8dJ)	.
*Xped	*	*
4c 4A- 4E-	4e-^	.
=9	=9	=9
*ped	*	*
4AAA-	(>8a-L	.
.	8cc	.
4e- 4c 4E-	8ee-	.
.	8een	.
*Xped	*	*
4e- 4d- 4E-	8ff	.
.	8gJ	.
=10	=10	=10
*ped	*	*
4AA-	(>8a-)L	.
.	8cc	.
.	8qff/	.
4g-X 4c 4A-	8ee-yX	.
.	8ddnJ	.
*Xped	*	*
4g- 4c 4A-	4ee-	.
=11	=11	=11
*ped	*	*
4D-	(>8dd-XL)	.
.	8ff	.
4f 4d- 4A-	8gg	.
.	8bb-	.
4f 4d- 4A-	8aa-	.
*Xped	*	*
.	8ffJ	.
=12	=12	=12
*ped	*	*
4BB-	8dd-)L	.
.	(>8een	.
.	8qgg/	.
4f 4d- 4A-	8ff	.
.	8eeJ	.
*Xped	*	*
4f 4d- 4A-	4ff^<)	.
=13	=13	=13
*ped	*	*
4E-	(<8gL>	.
.	8a-	.
4e- 4d- 4G	8b-	.
.	8cc	.
4e- 4d- 4G	8dd-	.
*Xped	*	*
.	8bnJ	.
!!LO:LB:g=original
=14	=14	=14
*ped	*	*
4AA-	16cc)Lk	.
.	16r	.
.	(<8dn	.
.	8qf/	.
4c 4A- 4E-	8e-	.
.	8dJ)	.
*Xped	*	*
4c 4A- 4E-	4e-^	.
=15	=15	=15
*ped	*	*
4EE-	(>8b-L 8g	.
.	8cc 8a-	.
4e- 4d- 4G 4E-	8dd- 8b-	.
.	8ee- 8cc	.
4e- 4d- 4G 4E-	8ff 8dd-	.
*Xped	*	*
.	8ddnJ 8bn	.
=16	=16	=16
*ped	*	*
4AA-	16ee-)Lk> 16cc	.
.	16r	.
.	(<8dn	.
.	8qf/	.
4c 4A- 4E-	8e-	.
.	8dJ)	.
*Xped	*	*
4c 4A- 4E-	[4e-^	.
=17	=17	=17
*^	*^	*
4A-	2D-	2f	4e-]	.
2B-	.	.	2d-	.
.	[>4E-	[<4g	.	.
*v	*v	*	*	*
=18	=18	=18	=18
*ped	*	*	*
4E-] 4AA-	8.gL]	2c	.
.	16a-k	.	.
4r	8a-	.	.
.	8b-J	.	.
*Xped	*	*	*
4e- [>4A-	[4cc	4g-X	.
=19	=19	=19	=19
2A-] 2D-	8ccL]	2f	.
.	8dd-J	.	.
.	4.cc	.	.
4d- 4E-	.	4gn	.
.	8b-	.	.
=20	=20	=20	=20
[2.A-	(8dd-L	8fL	.
.	8cc	8e-	.
.	8qdd-/	.	.
.	8cc	8e-	.
.	8bnJ	8dnJ	.
.	4cc	[4e-	.
=21	=21	=21	=21
*^	*	*	*
4A-]	2D-	2f	4e-]	.
2B-	.	.	2d-yX	.
.	[>4E-	[<4g	.	.
*v	*v	*	*	*
!!LO:LB:g=original
=22	=22	=22	=22
*ped	*	*	*
4E-] 4AA-	8.gL]	2c	.
.	16a-k	.	.
4r	8a-	.	.
.	8b-J	.	.
*Xped	*	*	*
4F 4AA-	4cc	4dn	.
=23	=23	=23	=23
2G 2GG	8ccL	4e-	.
.	8ddnJ	.	.
.	4.bn	4dn	.
4dn 4G	.	4f	.
.	8g	.	.
=24	=24	=24	=24
*^	*	*	*
2.G	(>8.CL	8ddnL	[2.e-	.
.	.	8ee-J	.	.
.	16DnJk	.	.	.
.	4F	2cc)	.	.
.	8E-L	.	.	.
.	8DJ	.	.	.
=25	=25	=25	=25	=25
4A-	2D-X)	2f	4e-]	.
2B-	.	.	2d-	.
.	[>4E-	[<4g	.	.
*v	*v	*	*	*
=26	=26	=26	=26
*ped	*	*	*
4E-] 4AA-	8.gL]	2c	.
.	16a-k	.	.
4r	8a-	.	.
.	8b-J	.	.
*Xped	*	*	*
4e- [>4A-	4cc	4g-X	.
=27	=27	=27	=27
2A-] 2D-	8ccL	2f	.
.	8dd-J	.	.
.	4.cc	.	.
4d- 4E-	.	4gn	.
.	8b-	.	.
=28	=28	=28	=28
*^	*	*	*
[2.A-	2.A-	8dd-L	8fL	.
.	.	8cc	8e-	.
.	.	8qdd-/	.	.
.	.	8cc	8e-	.
.	.	8bnJ	8dnJ	.
.	.	4cc	[4e-	.
=29	=29	=29	=29	=29
4A-]	2D-	2f	4e-]	.
2B-	.	.	2d-	.
.	4E-	[<4g	.	.
*v	*v	*	*	*
!!LO:LB:g=original
=30	=30	=30	=30
*ped	*	*	*
4E- 4AA-	(8.gL]	2c	.
.	16a-k	.	.
4r	8a-	.	.
.	8b-J	.	.
*Xped	*	*	*
4F 4AA-	4cc	4dn	.
=31	=31	=31	=31
*	*	*^	*
2G 2GG	8ccL	4e-	4ryy	.
.	8ddnJ	.	.	.
.	4.bn	4ryy	4.dn	.
4dn 4G	.	4f	.	.
.	8g	.	8ryy	.
*	*	*v	*v	*
=32	=32	=32	=32
2G 2C	8dd-L	2e-	.
.	8ee-J	.	.
.	4.cc	.	.
[4G [>4C	.	4e-	.
.	8ee-	.	.
=33	=33	=33	=33
4G] 4C]	[2ee-	4e-	.
4Bn 4G 4C	.	8fL	.
.	.	8gJ	.
[4B [4G [>4C	8ee-L]	[4f	.
.	8ee-J	.	.
=34	=34	=34	=34
4B] 4G] 4C]	2ddn	8fL]	.
.	.	8fJ	.
4c 4G 4C	.	4e-	.
4c 4G 4C	4cc)	4e-	.
=35	=35	=35	=35
4c 4G 4C	([2ee-	8gL	.
.	.	8a-	.
4Bn 4G 4C	.	8g	.
.	.	8a-J	.
[4B [4G [>4C	8ee-L]	[<4f\	.
.	8ee-J	.	.
=36	=36	=36	=36
4BnX] 4G] 4C]	4ddn	8fL]	.
.	.	8fJ	.
4c 4G 4C	2cc)	2e-	.
4c 4G 4C	.	.	.
=37	=37	=37	=37
*ped	*	*	*
4GG 4CC	([2ee-	4r	.
4Bn 4G 4C	.	8gL	.
.	.	8a-J	.
*Xped	*	*	*
[4B [4G [>4C	8ee-L]	([4f	.
.	8ee-J	.	.
!!LO:PB:g=original
=38	=38	=38	=38
*ped	*	*	*
!LO:TX:b:t=P:problem:ligatura dźwięku "C" w poprzednim takcie w górę, w tym w dół	!	!	!
4BnX] 4G] 4C]	2ddn	8fL]	.
.	.	8fJ	.
4c 4G 4C	.	4e-	.
[4c [4G [>4C	4cc	4e-	.
=39	=39	=39	=39
*Xped	*	*	*
4c] 4G] 4C]	[2ee-	8gL	.
.	.	8a-	.
*ped	*	*	*
4Bn 4G 4C	.	8g	.
.	.	8a-J	.
[4B [4G [>4C	8ee-L]	[>\4f	.
.	8ee-J	.	.
=40	=40	=40	=40
*Xped	*	*	*
4BnX] 4G] 4C]	4ddn	8fL]	.
.	.	8fJ	.
*ped	*	*	*
4c 4G 4C	2cc)	2en	.
4c 4G 4C	.	.	.
*	*v	*v	*
=41	=41	=41
4CC	4r	.
4en 4G	(<8gL	.
.	8g#X	.
*Xped	*	*
4f 4G	8an	.
.	8BnJ	.
=42	=42	=42
4r	4c)	.
.	(8qan/	.
*ped	*	*
4en 4G	(<8gL)	.
.	8f#XJ	.
4e 4G	4g	.
=43	=43	=43
4C	4c)	.
4en 4G	8gL	.
.	8b-X	.
*Xped	*	*
[4f [>4G	8an	.
.	8BnJ	.
=44	=44	=44
4f] 4G]	2c^>	.
*ped	*	*
4en 4G	.	.
[4C	4ryy	.
!!LO:LB:g=original
=45	=45	=45
*^	*	*
!	!	!LO:TX:Bi:t=sotto voce	!
!	!LO:TX:b:t=P:brak zakończenia ligatury:problem	!	!
4r	2C_	(>2en	.
8GL	.	.	.
*Xped	*	*	*
8G#X	.	.	.
8An	8C\L]	4f	.
(8BBnJ	8BBn\J	.	.
=46	=46	=46	=46
4An)	2.C	8fL	.
.	.	8en	.
.	.	8qf/	.
8GL	.	8e	.
8F#XJ	.	8d#XJ	.
[<4G	.	[4e	.
=47	=47	=47	=47
4G]	[2C	4enX]	.
8GL	.	8enyL	.
8B-X	.	8gJ	.
8An	8C\L]	4f	.
8BBnJ	8BBn\J	.	.
*v	*v	*	*
=48	=48	=48
*ped	*	*
2G 2C	8enL	.
.	8BnJ	.
.	4c	pp
4r	8gL	.
.	8bnJ	.
=49	=49	=49
2.r	2cc	.
.	8a-L	.
.	8bnJ	.
=50	=50	=50
2.r	8ccL	.
.	8bn	.
.	8g	.
.	8ddn	.
.	8cc	.
.	8bJ	.
=51	=51	=51
2.r	8gL	.
.	8dd-X	.
.	8cc	<
.	8bn	.
.	8g	.
.	8dd-J	.
=52	=52	=52
2.r	8ccL	.
.	8bn	.
.	8b-X	.
.	8dd-	.
.	8cc	.
.	8b-)J	[
!!LO:LB:g=original
=53	=53	=53
*ped	*	*
4AAA-	(>8a-L	.
.	8cc	.
4e- 4c 4E-	8ee-	.
.	8een	.
4e- 4d- 4E-	8ff	.
*Xped	*	*
.	8gJ)	.
=54	=54	=54
*ped	*	*
4AA-	8a-L	.
.	(>8cc	.
.	8qff/	.
4g-X 4c 4A-	8ee-	.
.	8ddnJ	.
*Xped	*	*
4g- 4c 4A-	4ee-^<)	.
=55	=55	=55
*ped	*	*
4D-	(>8dd-XL	.
.	8ff	.
4f 4d- 4A-	8gg	.
.	8bb-	.
4f 4d- 4A-	8aa-	.
*Xped	*	*
.	8ffJ)	.
=56	=56	=56
*ped	*	*
4BB-	(8dd-L	.
.	8een	.
.	8qgg/	.
4f 4d- 4A-	8ff	.
.	8eeJ	.
*Xped	*	*
4f 4d- 4A-	4ff)	.
=57	=57	=57
*ped	*	*
4E-	(>8gL/	.
.	8a-	.
4e- 4d- 4G	8b-	.
.	8cc	.
4e- 4d- 4G	8dd-	.
*Xped	*	*
.	.	.
.	8bnJ)	.
=58	=58	=58
*ped	*	*
4AA-	16ccLk	.
.	16r	.
.	(<8dn	.
.	8qf/	.
4c 4A- 4E-	8e-	.
.	8dJ)	.
*Xped	*	*
4c 4A- 4E-	4e-^	.
=59	=59	=59
*ped	*	*
4EE-	8b-L 8g	.
.	8cc 8a-	.
4e- 4d- 4G 4E-	8dd- 8b-	.
.	8ee- 8cc	.
*Xped	*	*
4e- 4d- 4G 4E-	8ff 8dd-	.
!	!LO:TX:a:t=P:brak początku ligatury:problem	!
.	(8ddnJ 8bn	.
!!LO:LB:g=original
=60	=60	=60
4AA-	(>16ee-Lk\ 16cc)	.
.	16r	.
.	(8dn	.
.	8qf/	.
4c 4A- 4E-	8e-	.
.	8dJ	.
4c 4A- 4E-	[<4e-^)	.
=61	=61	=61
*^	*^	*
4A-	2D-	2f	4e-]	.
2B-	.	.	2d-yX	.
.	[>4E-	[</4g	.	.
*v	*v	*	*	*
=62	=62	=62	=62
*ped	*	*	*
4E-] 4AA-	8.gL]	2c	.
.	16a-k	.	.
4r	8a-	.	.
.	8b-J	.	.
4e- [>4A-	4cc	4g-X	.
=63	=63	=63	=63
2A-] 2D-	8ccL	2f	.
.	8dd-J	.	.
.	4.cc	.	.
4d- 4E-	.	4gn	.
.	8b-	.	.
=64	=64	=64	=64
[2.A-	8dd-L	8fL	.
.	8cc	8e-	.
.	8qdd-/	.	.
.	8cc	8e-	.
.	8bnJ	8dnJ	.
.	4cc	[4e-	.
=65	=65	=65	=65
*^	*	*	*
4A-]	2D-	2f	4e-]	.
2B-	.	.	2d-	.
.	[>4E-	[<4g	.	.
*v	*v	*	*	*
=66	=66	=66	=66
*ped	*	*	*
4E-] 4AA-	8.gL]	2c	.
.	16a-k	.	.
4r	8a-	.	.
.	8b-J	.	.
4F 4AA-	4cc	4dn	.
*Xped	*	*	*
.	.	.	.
=67	=67	=67	=67
2G 2GG	8ccL	4e-	.
.	8ddnJ	.	.
.	4.bn	4dn	.
4dn 4G	.	4f	.
.	8g)	.	.
!!LO:LB:g=original
=68	=68	=68	=68
*^	*	*	*
!	!	!	!	!LO:HP:b=2
2.G	8.CL	8ddnL	[2.e-	<
.	.	8ee-J	.	.
.	16DnJk	.	.	.
.	4F	2cc	.	[
.	8E-L	.	.	.
.	8DJ	.	.	.
=69	=69	=69	=69	=69
4A-	2D-X	2f	4e-]	.
2B-	.	.	2d-	.
.	[>4E-	[<4g	.	.
*v	*v	*	*	*
=70	=70	=70	=70
*ped	*	*	*
4E-] 4AA-	8.gL]	2c	.
!	!LO:TX:Bi:t=dim_:problem:dynamics with extention lines	!	!
!	!	!	!LO:HP:b:Bi:t=dim
.	16a-k	.	>
4r	8a-	.	.
.	8b-J	.	.
*Xped	*	*	*
4e- [>4A-	[<4cc	4g-X	.
=71	=71	=71	=71
2A-] 2D-	8ccL]	2f	.
.	8dd-J	.	.
.	4.cc	.	.
4d- 4E-	.	4gn	.
.	8b-	.	.
=72	=72	=72	=72
[2.A-	8dd-L	8fL	.
.	8cc	8e-	.
.	8qdd-/	.	.
.	8cc	8e-	.
.	8bnJ	8dnJ	.
.	4cc	[4e-/	.
=73	=73	=73	=73
*^	*	*	*
4A-]	2D-	2f	4e-]	.
2B-	.	.	2d-	.
.	[>4E-	[4g	.	.
*v	*v	*	*	*
=74	=74	=74	=74
*ped	*	*	*
2.E-];< 2.AA-	8.gL]	2.c	.
.	16a-k	.	.
.	8.a-	.	.
.	16b-J	.	.
!LO:TX:b:B:t=Fine.	!	!	!
.	4cc 4e-;	.	]]
*	*v	*v	*
==	==	==
*-	*-	*-
!!title: @{OTL}; @{OPS} @{ONM} publisher: @{PPR}
!!!RDF**kern: > = above
!!!RDF**kern: < = below
!!!ENC: Marta Lawrence
!!!END: 2018-06-12
!!!EED: Leszek Kubiak
!!!EST: revision finished 2018-06-14
!!!EED2: Jacek Iwaszko
!!!EST2: revision finished 2018-10-30
!!!EED3: Marta Lawrence
!!!EST3: revision finished 2018-11-17
!!!rism-genre: Mazurka
!!!rism-key: A-flat major
!!!rism-opus: op.  41, no. 4
!!!rism-title: Mazurka in A-flat major op.  41, no. 4
!!!rism-permalink: https://opac.rism.info/search?id=300605020&View=rism
!!!rism-773a-OPR: 300605016
!!!rism-parent-permalink: https://opac.rism.info/search?id=300605016&View=rism
